X: 8
T: Halting March
R: march
M: 4/4
L: 1/8
K: Am
Q: 180
%%MIDI chordvol 0
%%MIDI bassvol 0
"E" E4 | "Am"A4 ABcd | e2 e4 d2 | e3d  e2 f2 | e2 c2  A4 | 
      "G"G4 GABc | d2 d4 e2 | d3B G2B2 | "E5"d4 "E5/G#"c2B2 | 
     "Am"A4 ABcd | e2 e4 d2 | e3d  e2 f2 | e2 c2  A4 | 
   "G"a2g4 e2 | "E5"d2 c4 B2 | "D"A3B A2 G2 | A4 :||
       "E" e4 | "Am"a2 a4 g2 | e2 d4 e2 | "G"g3a g2 e2 | d2 B2 G4 |
     "Am"a2 a4 g2 | e2 d4 e2 | "G"g3a g2 e2 | g4 "E5"e2 fg |
     "Am"a2 a4 g2 | e2 d4 e2 | "G"g3a g2 e2 | d2 B2 G4 |1
   "Am(D)"A3B c2d2 | e2 d4 B2 | A3B c2d2 | "E5"e4 :||2
   "Am"A3B c2d2 | e2 d4 B2 | "D"A3B A2 G2 | A4 ||

